src/assets/skills/html.svg

<svg width="422" height="479" fill="none" xmlns="http://www.w3.org/2000/svg"><path d="M38.4 430.7 0 0h422l-38.4 430.6-172.9 48-172.3-47.9Z" fill="#E44D26"/><path d="m211 442 139.6-38.8 32.9-368H211V442Z" fill="#F16529"/><path d="M211 195h-70l-4.7-54.1H211V88H78.5l1.3 14.2 13 145.6H211V195Zm0 137.2h-.2l-58.9-15.9-3.7-42.1h-53l7.3 83 108.3 30h.2v-55Z" fill="#EBEBEB"/><path d="M210.8 195v52.8h65l-6 68.5-59 15.9v55l108.3-30 .8-9 12.4-139 1.3-14.2H210.8Zm0-107v53h127.6l1-12 2.5-26.7 1.3-14.2H210.8V88Z" fill="#fff"/></svg>

<svg width="422" height="479" viewBox="0 0 422 479" fill="none" xmlns="http://www.w3.org/2000/svg">
<path d="M38.4 430.7L0 0H422L383.6 430.6L210.7 478.6L38.4 430.7Z" fill="#E44D26"/>
<path d="M211 442L350.6 403.2L383.5 35.2H211V442Z" fill="#F16529"/>
<path d="M211 195H141L136.3 140.9H211V88H78.5L79.8 102.2L92.8 247.8H211V195ZM211 332.2H210.8L151.9 316.3L148.2 274.2H95.2L102.5 357.2L210.8 387.2H211V332.2Z" fill="#EBEBEB"/>
<path d="M210.8 195V247.8H275.8L269.8 316.3L210.8 332.2V387.2L319.1 357.2L319.9 348.2L332.3 209.2L333.6 195H210.8ZM210.8 88V141H338.4L339.4 129L341.9 102.3L343.2 88.1H210.8V88Z" fill="white"/>
</svg>
